media/costumes/balloon1-c.svg

<svg width="78" height="140" xmlns="http://www.w3.org/2000/svg"><defs><linearGradient id="a" y2="1"><stop offset="0" stop-color="#7F3F98"/><stop offset="1" stop-color="#60C"/></linearGradient><radialGradient id="b" cx=".52" cy=".293" r=".919"><stop offset="0" stop-color="#DB50F0"/><stop offset="1" stop-color="#7F3F98"/></radialGradient></defs><path fill="url(#a)" d="M83 184.5c-3.49 4.157-4.43 8.884-3.538 14.175.726 4.298 7.75 6.117 7.949.672a71.19 71.19 0 0 0-.034-5.602c-.198-4.579-4.116 2.843-4.252 4.821-.387 5.615-.505 11.953 4.542 15.601.01-.113.014-.228.013-.342.017-1.154.109-1.99.654-2.992.5-.919-.73-4.451 0-5-8.636 6.488-4.93 22.308 1.333 29-.813-.869.849-4.093 0-5-5.466-5.84-8.514-13.605-1.333-19v-5c-.519.954-.653 1.888-.669 2.967-.007.483-2.278-1.752-2.315-1.797-.714-.849-1.141-1.913-1.559-2.923-.891-2.149-.589-1.76.259-3.83.435-1.062 1.232-1.894 2.018-2.697 1.551-1.586 1.28.633 1.33 1.794l.007-4.911c-.252 3.105-2.755 4.099-5.404 2.731-1.354-.699-2.123-2.095-2.538-3.492.727 2.449-.082 1.943.699.002.628-1.563 1.771-2.904 2.839-4.177.835-.996-.806-4.041-.001-5z" transform="rotate(1.12 4922.294 -2377.69)"/><path fill="none" stroke="#60C" stroke-width="2" stroke-linecap="round" d="M39.35 111.85s.109 3.016-.1 4.5c-.096.68-.8 1.9-.8 1.9"/><path fill="url(#b)" d="M493.075 212.752c-4.552 24.615-34.956 41.056-43.872 40.332-9.723-.789-32.514-29-27.963-53.617 4.553-24.615 24.324-41.597 44.16-37.929 19.836 3.668 32.227 26.599 27.675 51.214z" transform="rotate(-2.66 -3164.053 9138.731)"/></svg>

<svg version="1.1" width="78" height="140" xmlns="http://www.w3.org/2000/svg" xmlns:xlink="http://www.w3.org/1999/xlink">
  <defs>
    <linearGradient id="grad_1" y2="1">
      <stop offset="0" stop-color="#7F3F98" stop-opacity="1"/>
      <stop offset="1" stop-color="#6600CC" stop-opacity="1"/>
    </linearGradient>
    <radialGradient id="grad_2" cx="0.52" cy="0.29309999999999997" r="0.9189700000000001">
      <stop offset="0" stop-color="#DB50F0" stop-opacity="1"/>
      <stop offset="1" stop-color="#7F3F98" stop-opacity="1"/>
    </radialGradient>
  </defs>
  <!-- Exported by Scratch - http://scratch.mit.edu/ -->
  <g id="ID0.07485470175743103">
    <g id="ID0.8842033431865275">
      <g id="ID0.9813417503610253">
        <g id="ID0.6985900145955384">
          <path id="ID0.020438293926417828" fill="url(#grad_1)" d="M 83 184.500 C 79.510 188.657 78.570 193.384 79.462 198.675 C 80.188 202.973 87.212 204.792 87.411 199.347 C 87.478 197.485 87.457 195.606 87.377 193.745 C 87.179 189.166 83.261 196.588 83.125 198.566 C 82.738 204.181 82.620 210.519 87.667 214.167 C 87.677 214.054 87.681 213.939 87.680 213.825 C 87.697 212.671 87.789 211.835 88.334 210.833 C 88.834 209.914 87.604 206.382 88.334 205.833 C 79.698 212.321 83.404 228.141 89.667 234.833 C 88.854 233.964 90.516 230.740 89.667 229.833 C 84.201 223.993 81.153 216.228 88.334 210.833 C 88.334 209.166 88.334 207.500 88.334 205.833 C 87.815 206.787 87.681 207.721 87.665 208.800 C 87.658 209.283 85.387 207.048 85.350 207.003 C 84.636 206.154 84.209 205.090 83.791 204.080 C 82.900 201.931 83.202 202.320 84.050 200.250 C 84.485 199.188 85.282 198.356 86.068 197.553 C 87.619 195.967 87.348 198.186 87.398 199.347 C 87.400 197.709 87.402 196.073 87.405 194.436 C 87.153 197.541 84.650 198.535 82.001 197.167 C 80.647 196.468 79.878 195.072 79.463 193.675 C 80.190 196.124 79.381 195.618 80.162 193.677 C 80.790 192.114 81.933 190.773 83.001 189.500 C 83.836 188.504 82.195 185.459 83 184.500 L 83 184.500 Z " transform="matrix(0.9998088479042053, 0.01955297589302063, -0.01955297589302063, 0.9998088479042053, -45.55, -96.7)"/>
        </g>
      </g>
      <path id="ID0.444075814448297" fill="none" stroke="#6600CC" stroke-width="2" stroke-linecap="round" d="M 212.600 211.600 C 212.600 211.600 212.709 214.616 212.500 216.100 C 212.404 216.780 211.700 218 211.700 218 " transform="matrix(1, 0, 0, 1, -173.25, -99.75)"/>
    </g>
    <path id="ID0.790923397988081" fill="url(#grad_2)" d="M 493.075 212.752 C 488.523 237.367 458.119 253.808 449.203 253.084 C 439.480 252.295 416.689 224.084 421.240 199.467 C 425.793 174.852 445.564 157.870 465.400 161.538 C 485.236 165.206 497.627 188.137 493.075 212.752 Z " transform="matrix(0.9989224076271057, -0.04641130566596985, 0.04641130566596985, 0.9989224076271057, -427.55, -137)"/>
  </g>
</svg>
